public/icons/bridge/harmony.svg

<svg width="24" height="24" viewBox="0 0 24 24" fill="none" xmlns="http://www.w3.org/2000/svg">
<rect width="24" height="24" rx="12" fill="url(#paint0_linear_7138_23434)"/>
<path d="M16 5C14.3478 5 13 6.35193 12.9565 8.00913V11.3671C12.6522 11.3671 12.3478 11.4107 12 11.4107C11.6522 11.4107 11.3478 11.4107 11.0435 11.4544V8.00913C11.0435 6.35193 9.65219 5 7.95652 5.04361C6.34783 5.04361 5.04348 6.39554 5 8.00913V16.0335C5.04348 17.6907 6.3913 19.0426 8.08696 18.999C9.73911 18.9554 11.0435 17.647 11.0435 16.0335V12.6755C11.3478 12.6755 11.6522 12.6319 12 12.6319C12.3478 12.6319 12.6522 12.6319 12.9565 12.5882V15.9898C13 17.647 14.3478 18.999 16.0435 18.9554C17.6957 18.9117 19 17.6034 19 15.9898V8.00913C19 6.35193 17.6522 5 16 5ZM8.04348 6.2211C9.04348 6.2211 9.82608 7.00609 9.82608 8.00913V11.5416C8.95652 11.6724 8.08696 11.9341 7.26087 12.283C6.91304 12.4574 6.56522 12.6319 6.26087 12.8935V8.00913C6.26087 7.04969 7.04348 6.2211 8.04348 6.2211ZM9.82608 16.0335C9.82608 17.0365 9.04348 17.8215 8.04348 17.8215C7.04348 17.8215 6.26087 17.0365 6.26087 16.0335V15.2485C6.26087 14.5507 6.82609 13.8529 7.78261 13.4605C8.43478 13.1552 9.13044 12.9807 9.86957 12.8499L9.82608 16.0335ZM16 17.8215C15 17.8215 14.2174 17.0365 14.2174 16.0335V12.501C15.087 12.3702 15.9565 12.1085 16.7826 11.7596C17.1304 11.5852 17.4783 11.4107 17.7826 11.1491V16.0335C17.7826 17.0365 16.9565 17.8215 16 17.8215ZM16.2609 10.6258C15.6087 10.931 14.913 11.1055 14.1739 11.2363V8.00913C14.1739 7.00609 14.9565 6.2211 15.9565 6.2211C16.9565 6.2211 17.7391 7.00609 17.7391 8.00913V8.79411C17.7826 9.53549 17.2174 10.1897 16.2609 10.6258Z" fill="white"/>
<defs>
<linearGradient id="paint0_linear_7138_23434" x1="12" y1="-4.94637e-07" x2="-4.5972" y2="16.5469" gradientUnits="userSpaceOnUse">
<stop stop-color="#00E8A2"/>
<stop offset="1" stop-color="#00ADE8"/>
</linearGradient>
</defs>
</svg>

<svg width="24" height="24" fill="none" xmlns="http://www.w3.org/2000/svg"><rect width="24" height="24" rx="12" fill="url(#a)"/><path d="M16 5c-1.652 0-3 1.352-3.043 3.01v3.357c-.305 0-.61.044-.957.044-.348 0-.652 0-.957.043V8.01c0-1.657-1.39-3.009-3.086-2.965-1.61 0-2.914 1.352-2.957 2.965v8.024c.043 1.658 1.391 3.01 3.087 2.966 1.652-.044 2.957-1.352 2.957-2.965v-3.358c.304 0 .608-.044.956-.044s.652 0 .957-.044v3.402c.043 1.657 1.39 3.009 3.087 2.965C17.696 18.912 19 17.603 19 15.99V8.01A3.01 3.01 0 0 0 16 5ZM8.043 6.221c1 0 1.783.785 1.783 1.788v3.533c-.87.13-1.739.392-2.565.741-.348.174-.696.349-1 .61V8.01c0-.96.782-1.788 1.782-1.788Zm1.783 9.813a1.766 1.766 0 0 1-1.783 1.788c-1 0-1.782-.785-1.782-1.788v-.785c0-.698.565-1.396 1.522-1.789.652-.305 1.347-.48 2.087-.61l-.044 3.184ZM16 17.822c-1 0-1.783-.785-1.783-1.788V12.5c.87-.13 1.74-.393 2.566-.741.347-.175.695-.35 1-.61v4.883A1.793 1.793 0 0 1 16 17.822Zm.26-7.196c-.651.305-1.347.48-2.086.61V8.01c0-1.003.783-1.788 1.783-1.788 1 0 1.782.785 1.782 1.788v.785c.044.741-.522 1.396-1.478 1.832Z" fill="#fff"/><defs><linearGradient id="a" x1="12" y1="0" x2="-4.597" y2="16.547" gradientUnits="userSpaceOnUse"><stop stop-color="#00E8A2"/><stop offset="1" stop-color="#00ADE8"/></linearGradient></defs></svg>
